X: 09048
T: IAIN MORRISON'S
C: Bob McQuillen 24 Mar 92
B: Bob's Note Book 9 #48
%R: reel
Z: 2018 John Chambers <jc:trillian.mit.edu>
N: There seems to be a word missing in the comments, after "various".
M: C
L: 1/8
K: A
ed \
| cefe cAFA | EFAc BAFA | cefe cAce | faec Befe |
| afec fecA | EFAc BAFE | Acea feaf | ecBc A2 :|
K: D
|: DE \
| FABA dBAB | defd edBA | FABA dBAB | defd e2fe |
| dfed BAFA | dBAF EDFA | BAFA dBAF | EDEF D2 :|
%%begintext align
%% When Sarah Bauhan and I were on
%% the Isle of Mull in Sept '89, Cap't. Iain Morrison took us out
%% to see Fingal's Cave on his boat, Puffin II. It was a great
%% trip in a truly beautiful part of the world. We later played tunes
%% with Iain and others in great sessions at various. Iain
%% really liked to play "La Bastringue" on his accordion!
%%endtext

%%sep 1 1 500

%%sep 1 1 500

